X:1497
T:Duffy the Dancer
R:reel
N:"collected from Walsh"
B:"O'Neill's Dance Music of Ireland, 1497"
T: ua du.btai.g an rinceoir.
Z:transcribed by John B. Walsh, 8/22/96
M:C|
L:1/8
K:A
e|Ta2 ea cAAd|cAeA cAAe|Ta2 ea cAAd|BGdc BGBd|
Ta2 ea cAAd|cAeA cAAe|Tg2 fg baefd|BGdc BG G||
e|cAeA fAeA|cAeA cAAd|cAeA fAeA|BGdc BGGd|
cAeA fAeA|cAeA cAAe|Tg2 fg baefd|BGdc BA A||
